X:50
T:Adieu My Native Land Adieu. JC.049
R:Air
S:John Clare,Poet,Helpston. (1793-1864)
N:Song text exists. See Deacon.
O:England
A:Northamptonshire
Z:vmp.P. Headford
M:6/8
L:1/8
Q:2/4=60
K:D
[V:1]A|d3f (fe)(gf)|(fe)(dc) d3A|B2d2 A2d2|e/d/(c/d/ e)f{f}e3A|!
[V:2]A|F3d (dc)(ed)|(AG)(FE) F3F|G2B2 F2A2|c/(B/A/B/ c)d{d}c3A|!
%
[V:1]d3f (fe)(gf)|(fe)(dc) d3A|(B/c/d/c/ e/)d/(c/B/) Ad(fa)|geBc d3||!
[V:2]F3d (dc)(ed)|(AG)(FE) F3F|(G/A/B/A/ c/)(B/A/G/)F2(df)|B2GE F3||!
%
[V:1]f|eA^GB A3f|eA^GB {B}A3^e|(fc)(dA) BFGG|!
[V:2]d|c2(Bd) c3d|c2(Bd) {d}c3^e|(fc)(dA) BFGz|!
%
[V:1]g3f e3d|c3d e3A|g3f {f}e3d|c3d A3|]
[V:2]AAAA AAAA|AAAA AAAz|e3d {d}c3d|E3D A3|]

